src/asset/24px/calendar.svg

<svg width="24" height="24" viewBox="0 0 24 24" fill="none" xmlns="http://www.w3.org/2000/svg">
<path fill-rule="evenodd" clip-rule="evenodd" d="M8 1.99973C8.55228 1.99973 9 2.44744 9 2.99973V3.99973H15V2.99973C15 2.44744 15.4477 1.99973 16 1.99973C16.5523 1.99973 17 2.44744 17 2.99973V3.99973H18C19.6569 3.99973 21 5.34287 21 6.99973V17.9997C21 19.6566 19.6569 20.9997 18 20.9997H6C4.34315 20.9997 3 19.6566 3 17.9997V6.99973C3 5.34287 4.34315 3.99973 6 3.99973H7V2.99973C7 2.44744 7.44772 1.99973 8 1.99973ZM6 5.99973C5.44772 5.99973 5 6.44744 5 6.99973V7.99973H19V6.99973C19 6.44744 18.5523 5.99973 18 5.99973H6ZM19 9.99973H5V17.9997C5 18.552 5.44772 18.9997 6 18.9997H18C18.5523 18.9997 19 18.552 19 17.9997V9.99973Z" fill="#808080"/>
<path fill-rule="evenodd" clip-rule="evenodd" d="M16 13.9997C16.5523 13.9997 17 13.552 17 12.9997C17 12.4474 16.5523 11.9997 16 11.9997C15.4477 11.9997 15 12.4474 15 12.9997C15 13.552 15.4477 13.9997 16 13.9997Z" fill="#808080"/>
<path fill-rule="evenodd" clip-rule="evenodd" d="M13 13.9997C13.5523 13.9997 14 13.552 14 12.9997C14 12.4474 13.5523 11.9997 13 11.9997C12.4477 11.9997 12 12.4474 12 12.9997C12 13.552 12.4477 13.9997 13 13.9997Z" fill="#808080"/>
<path fill-rule="evenodd" clip-rule="evenodd" d="M10 16.9997C10.5523 16.9997 11 16.552 11 15.9997C11 15.4474 10.5523 14.9997 10 14.9997C9.44772 14.9997 9 15.4474 9 15.9997C9 16.552 9.44772 16.9997 10 16.9997Z" fill="#808080"/>
<path fill-rule="evenodd" clip-rule="evenodd" d="M13 16.9997C13.5523 16.9997 14 16.552 14 15.9997C14 15.4474 13.5523 14.9997 13 14.9997C12.4477 14.9997 12 15.4474 12 15.9997C12 16.552 12.4477 16.9997 13 16.9997Z" fill="#808080"/>
</svg>

<svg width="24" height="24" fill="none" xmlns="http://www.w3.org/2000/svg"><path fill-rule="evenodd" clip-rule="evenodd" d="M8 2a1 1 0 011 1v1h6V3a1 1 0 112 0v1h1a3 3 0 013 3v11a3 3 0 01-3 3H6a3 3 0 01-3-3V7a3 3 0 013-3h1V3a1 1 0 011-1zM6 6a1 1 0 00-1 1v1h14V7a1 1 0 00-1-1H6zm13 4H5v8a1 1 0 001 1h12a1 1 0 001-1v-8z" fill="gray"/><path fill-rule="evenodd" clip-rule="evenodd" d="M16 14a1 1 0 100-2 1 1 0 000 2zM13 14a1 1 0 100-2 1 1 0 000 2zM10 17a1 1 0 100-2 1 1 0 000 2zM13 17a1 1 0 100-2 1 1 0 000 2z" fill="gray"/></svg>
